X: 9745
T: Delaney's
R: jig
M: 6/8
K: Dmixolydian
|:ABA DFA|ded dcA|GEE cEE|1 GAB c3:|2 DED D3||
|:ded dcA|ded dcA|GEE cEE|1 GAB c3:|2 DED D3||

